X: 518
T: Devil Eat the Groundhog
C:Owen "Snake" Chapman
B: jims roots
M:C|
L:1/8
R: Reel
Q: 1/4=100
K:G
V:1 
%F: http://www.slippery-hill.com/recording/devil-eat-goundhog
"G"G,B,DG "C"E2[C2E2] | "G"DB,G,B, "D"[A,2D2][A,2D2] | "G"G,B,G,B, "C"D2G2 | [1 "D"AcBA "G"G2G2:| [2"D"AcBA "G"G2(3DEF||
"G"G2B2 "C"cBAc | "G"BAGB "D"ADEF | "G"G2 B2 "C"cBAc |[1 "D"dcBA "G"G2 (3DEF :|[2 "D"dcBA "G"G2G2||
% abcbook-tune_id 6298c2450452df73f5fdbbdb


% abcbook-boost 0
% abcbook-tablature 
% abcbook-transpose 
% abcbook-lastupdated 1654178373975
% abcbook-soundfonts 
% abcbook-repeats 1


